bernoullicharts/exp_-x_flajolet__bound.svg

<?xml version="1.0" encoding="utf-8" standalone="no"?>
<!DOCTYPE svg PUBLIC "-//W3C//DTD SVG 1.1//EN"
  "http://www.w3.org/Graphics/SVG/1.1/DTD/svg11.dtd">
<!-- Created with matplotlib (https://matplotlib.org/) -->
<svg height="345.6pt" version="1.1" viewBox="0 0 460.8 345.6" width="460.8pt" xmlns="http://www.w3.org/2000/svg" xmlns:xlink="http://www.w3.org/1999/xlink">
 <defs>
  <style type="text/css">
*{stroke-linecap:butt;stroke-linejoin:round;}
  </style>
 </defs>
 <g id="figure_1">
  <g id="patch_1">
   <path d="M 0 345.6 
L 460.8 345.6 
L 460.8 0 
L 0 0 
z
" style="fill:#ffffff;"/>
  </g>
  <g id="axes_1">
   <g id="patch_2">
    <path d="M 57.6 307.584 
L 414.72 307.584 
L 414.72 41.472 
L 57.6 41.472 
z
" style="fill:#ffffff;"/>
   </g>
   <g id="matplotlib.axis_1">
    <g id="xtick_1">
     <g id="line2d_1">
      <defs>
       <path d="M 0 0 
L 0 3.5 
" id="mffdcca93c8" style="stroke:#000000;stroke-width:0.8;"/>
      </defs>
      <g>
       <use style="stroke:#000000;stroke-width:0.8;" x="73.800255" xlink:href="#mffdcca93c8" y="307.584"/>
      </g>
     </g>
     <g id="text_1">
      <text style="font-family:DejaVu Sans;font-size:10px;font-style:normal;font-weight:normal;text-anchor:middle;" transform="rotate(-0, 73.800255, 322.182437)" x="73.800255" y="322.182437">0.0</text>
     </g>
    </g>
    <g id="xtick_2">
     <g id="line2d_2">
      <g>
       <use style="stroke:#000000;stroke-width:0.8;" x="138.744153" xlink:href="#mffdcca93c8" y="307.584"/>
      </g>
     </g>
     <g id="text_2">
      <text style="font-family:DejaVu Sans;font-size:10px;font-style:normal;font-weight:normal;text-anchor:middle;" transform="rotate(-0, 138.744153, 322.182437)" x="138.744153" y="322.182437">0.2</text>
     </g>
    </g>
    <g id="xtick_3">
     <g id="line2d_3">
      <g>
       <use style="stroke:#000000;stroke-width:0.8;" x="203.688051" xlink:href="#mffdcca93c8" y="307.584"/>
      </g>
     </g>
     <g id="text_3">
      <text style="font-family:DejaVu Sans;font-size:10px;font-style:normal;font-weight:normal;text-anchor:middle;" transform="rotate(-0, 203.688051, 322.182437)" x="203.688051" y="322.182437">0.4</text>
     </g>
    </g>
    <g id="xtick_4">
     <g id="line2d_4">
      <g>
       <use style="stroke:#000000;stroke-width:0.8;" x="268.631949" xlink:href="#mffdcca93c8" y="307.584"/>
      </g>
     </g>
     <g id="text_4">
      <text style="font-family:DejaVu Sans;font-size:10px;font-style:normal;font-weight:normal;text-anchor:middle;" transform="rotate(-0, 268.631949, 322.182437)" x="268.631949" y="322.182437">0.6</text>
     </g>
    </g>
    <g id="xtick_5">
     <g id="line2d_5">
      <g>
       <use style="stroke:#000000;stroke-width:0.8;" x="333.575847" xlink:href="#mffdcca93c8" y="307.584"/>
      </g>
     </g>
     <g id="text_5">
      <text style="font-family:DejaVu Sans;font-size:10px;font-style:normal;font-weight:normal;text-anchor:middle;" transform="rotate(-0, 333.575847, 322.182437)" x="333.575847" y="322.182437">0.8</text>
     </g>
    </g>
    <g id="xtick_6">
     <g id="line2d_6">
      <g>
       <use style="stroke:#000000;stroke-width:0.8;" x="398.519745" xlink:href="#mffdcca93c8" y="307.584"/>
      </g>
     </g>
     <g id="text_6">
      <text style="font-family:DejaVu Sans;font-size:10px;font-style:normal;font-weight:normal;text-anchor:middle;" transform="rotate(-0, 398.519745, 322.182437)" x="398.519745" y="322.182437">1.0</text>
     </g>
    </g>
    <g id="text_7">
     <text style="font-family:DejaVu Sans;font-size:10px;font-style:normal;font-weight:normal;text-anchor:middle;" transform="rotate(-0, 236.16, 335.860562)" x="236.16" y="335.860562">Input Coin's Heads Probability (λ)</text>
    </g>
   </g>
   <g id="matplotlib.axis_2">
    <g id="ytick_1">
     <g id="line2d_7">
      <defs>
       <path d="M 0 0 
L -3.5 0 
" id="m84c5fda30b" style="stroke:#000000;stroke-width:0.8;"/>
      </defs>
      <g>
       <use style="stroke:#000000;stroke-width:0.8;" x="57.6" xlink:href="#m84c5fda30b" y="295.488057"/>
      </g>
     </g>
     <g id="text_8">
      <text style="font-family:DejaVu Sans;font-size:10px;font-style:normal;font-weight:normal;text-anchor:end;" transform="rotate(-0, 50.6, 299.287276)" x="50.6" y="299.287276">0</text>
     </g>
    </g>
    <g id="ytick_2">
     <g id="line2d_8">
      <g>
       <use style="stroke:#000000;stroke-width:0.8;" x="57.6" xlink:href="#m84c5fda30b" y="246.270497"/>
      </g>
     </g>
     <g id="text_9">
      <text style="font-family:DejaVu Sans;font-size:10px;font-style:normal;font-weight:normal;text-anchor:end;" transform="rotate(-0, 50.6, 250.069716)" x="50.6" y="250.069716">50</text>
     </g>
    </g>
    <g id="ytick_3">
     <g id="line2d_9">
      <g>
       <use style="stroke:#000000;stroke-width:0.8;" x="57.6" xlink:href="#m84c5fda30b" y="197.052937"/>
      </g>
     </g>
     <g id="text_10">
      <text style="font-family:DejaVu Sans;font-size:10px;font-style:normal;font-weight:normal;text-anchor:end;" transform="rotate(-0, 50.6, 200.852156)" x="50.6" y="200.852156">100</text>
     </g>
    </g>
    <g id="ytick_4">
     <g id="line2d_10">
      <g>
       <use style="stroke:#000000;stroke-width:0.8;" x="57.6" xlink:href="#m84c5fda30b" y="147.835377"/>
      </g>
     </g>
     <g id="text_11">
      <text style="font-family:DejaVu Sans;font-size:10px;font-style:normal;font-weight:normal;text-anchor:end;" transform="rotate(-0, 50.6, 151.634596)" x="50.6" y="151.634596">150</text>
     </g>
    </g>
    <g id="ytick_5">
     <g id="line2d_11">
      <g>
       <use style="stroke:#000000;stroke-width:0.8;" x="57.6" xlink:href="#m84c5fda30b" y="98.617817"/>
      </g>
     </g>
     <g id="text_12">
      <text style="font-family:DejaVu Sans;font-size:10px;font-style:normal;font-weight:normal;text-anchor:end;" transform="rotate(-0, 50.6, 102.417036)" x="50.6" y="102.417036">200</text>
     </g>
    </g>
    <g id="ytick_6">
     <g id="line2d_12">
      <g>
       <use style="stroke:#000000;stroke-width:0.8;" x="57.6" xlink:href="#m84c5fda30b" y="49.400257"/>
      </g>
     </g>
     <g id="text_13">
      <text style="font-family:DejaVu Sans;font-size:10px;font-style:normal;font-weight:normal;text-anchor:end;" transform="rotate(-0, 50.6, 53.199476)" x="50.6" y="53.199476">250</text>
     </g>
    </g>
    <g id="text_14">
     <text style="font-family:DejaVu Sans;font-size:10px;font-style:normal;font-weight:normal;text-anchor:middle;" transform="rotate(-90, 25.432813, 174.528)" x="25.432813" y="174.528">Coin Flips Needed</text>
    </g>
   </g>
   <g id="line2d_13">
    <path clip-path="url(#pa65d7cdb08)" d="M 73.832727 294.503854 
L 77.112066 294.518706 
L 80.391405 294.533441 
L 83.670744 294.54806 
L 86.950083 294.562563 
L 90.229421 294.576952 
L 93.50876 294.591225 
L 96.788099 294.605385 
L 100.067438 294.619431 
L 103.346777 294.633364 
L 106.626116 294.647185 
L 109.905455 294.660894 
L 113.184793 294.674491 
L 116.464132 294.687977 
L 119.743471 294.701352 
L 123.02281 294.714617 
L 126.302149 294.727773 
L 129.581488 294.74082 
L 132.860826 294.753759 
L 136.140165 294.76659 
L 139.419504 294.779313 
L 142.698843 294.791929 
L 145.978182 294.804439 
L 149.257521 294.816843 
L 152.53686 294.829141 
L 155.816198 294.841335 
L 159.095537 294.853424 
L 162.374876 294.865409 
L 165.654215 294.877291 
L 168.933554 294.88907 
L 172.212893 294.900747 
L 175.492231 294.912322 
L 178.77157 294.923795 
L 182.050909 294.935168 
L 185.330248 294.94644 
L 188.609587 294.957613 
L 191.888926 294.968686 
L 195.168264 294.979661 
L 198.447603 294.990537 
L 201.726942 295.001316 
L 205.006281 295.011997 
L 208.28562 295.022581 
L 211.564959 295.03307 
L 214.844298 295.043462 
L 218.123636 295.053759 
L 221.402975 295.063962 
L 224.682314 295.07407 
L 227.961653 295.084085 
L 231.240992 295.094006 
L 234.520331 295.103835 
L 237.799669 295.113571 
L 241.079008 295.123216 
L 244.358347 295.132769 
L 247.637686 295.142232 
L 250.917025 295.151605 
L 254.196364 295.160888 
L 257.475702 295.170081 
L 260.755041 295.179186 
L 264.03438 295.188203 
L 267.313719 295.197132 
L 270.593058 295.205974 
L 273.872397 295.214729 
L 277.151736 295.223398 
L 280.431074 295.231982 
L 283.710413 295.24048 
L 286.989752 295.248893 
L 290.269091 295.257222 
L 293.54843 295.265467 
L 296.827769 295.273629 
L 300.107107 295.281708 
L 303.386446 295.289705 
L 306.665785 295.297621 
L 309.945124 295.305454 
L 313.224463 295.313208 
L 316.503802 295.32088 
L 319.78314 295.328473 
L 323.062479 295.335987 
L 326.341818 295.343422 
L 329.621157 295.350778 
L 332.900496 295.358056 
L 336.179835 295.365257 
L 339.459174 295.372382 
L 342.738512 295.379429 
L 346.017851 295.386401 
L 349.29719 295.393297 
L 352.576529 295.400118 
L 355.855868 295.406865 
L 359.135207 295.413537 
L 362.414545 295.420136 
L 365.693884 295.426662 
L 368.973223 295.433115 
L 372.252562 295.439496 
L 375.531901 295.445805 
L 378.81124 295.452043 
L 382.090579 295.45821 
L 385.369917 295.464307 
L 388.649256 295.470334 
L 391.928595 295.476291 
L 395.207934 295.48218 
L 398.487273 295.488 
" style="fill:none;stroke:#1f77b4;stroke-linecap:square;stroke-width:1.5;"/>
   </g>
   <g id="line2d_14">
    <path clip-path="url(#pa65d7cdb08)" d="M 73.832727 294.503706 
L 77.112066 294.491894 
L 80.391405 294.491894 
L 83.670744 294.484019 
L 86.950083 294.470238 
L 90.229421 294.448582 
L 93.50876 294.456457 
L 96.788099 294.405271 
L 100.067438 294.422989 
L 103.346777 294.39149 
L 106.626116 294.399365 
L 109.905455 294.397396 
L 113.184793 294.365897 
L 116.464132 294.338335 
L 119.743471 294.324554 
L 123.02281 294.334398 
L 126.302149 294.287149 
L 129.581488 294.232025 
L 132.860826 294.251712 
L 136.140165 294.232025 
L 139.419504 294.249743 
L 142.698843 294.10406 
L 145.978182 294.22415 
L 149.257521 294.111934 
L 152.53686 294.141465 
L 155.816198 294.155246 
L 159.095537 294.129653 
L 162.374876 294.050905 
L 165.654215 293.978063 
L 168.933554 294.048936 
L 172.212893 294.041061 
L 175.492231 293.889471 
L 178.77157 293.96625 
L 182.050909 293.846159 
L 185.330248 293.759537 
L 188.609587 293.800879 
L 191.888926 293.755599 
L 195.168264 293.765443 
L 198.447603 293.629602 
L 201.726942 293.759537 
L 205.006281 293.586291 
L 208.28562 293.613853 
L 211.564959 293.542979 
L 214.844298 293.592197 
L 218.123636 293.452419 
L 221.402975 293.353984 
L 224.682314 293.338234 
L 227.961653 293.231924 
L 231.240992 293.137427 
L 234.520331 292.802747 
L 237.799669 292.88937 
L 241.079008 293.031117 
L 244.358347 292.911026 
L 247.637686 292.63147 
L 250.917025 292.911026 
L 254.196364 292.452318 
L 257.475702 292.385382 
L 260.755041 292.454287 
L 264.03438 292.239698 
L 267.313719 292.149138 
L 270.593058 292.003454 
L 273.872397 291.540809 
L 277.151736 291.838083 
L 280.431074 291.568371 
L 283.710413 291.572308 
L 286.989752 290.958073 
L 290.269091 291.017134 
L 293.54843 290.47771 
L 296.827769 291.137225 
L 300.107107 290.170592 
L 303.386446 289.148836 
L 306.665785 289.089774 
L 309.945124 289.028745 
L 313.224463 288.76297 
L 316.503802 288.357417 
L 319.78314 288.14086 
L 323.062479 286.083566 
L 326.341818 286.315873 
L 329.621157 285.284273 
L 332.900496 285.154338 
L 336.179835 283.872713 
L 339.459174 281.673673 
L 342.738512 281.254339 
L 346.017851 279.456914 
L 349.29719 276.405425 
L 352.576529 275.027333 
L 355.855868 269.871302 
L 359.135207 267.195835 
L 362.414545 265.703559 
L 365.693884 257.677159 
L 368.973223 250.883167 
L 372.252562 232.511236 
L 375.531901 219.606392 
L 378.81124 182.957028 
L 382.090579 148.394489 
L 385.369917 53.568 
" style="fill:none;stroke:#ff7f0e;stroke-linecap:square;stroke-width:1.5;"/>
   </g>
   <g id="patch_3">
    <path d="M 57.6 307.584 
L 57.6 41.472 
" style="fill:none;stroke:#000000;stroke-linecap:square;stroke-linejoin:miter;stroke-width:0.8;"/>
   </g>
   <g id="patch_4">
    <path d="M 414.72 307.584 
L 414.72 41.472 
" style="fill:none;stroke:#000000;stroke-linecap:square;stroke-linejoin:miter;stroke-width:0.8;"/>
   </g>
   <g id="patch_5">
    <path d="M 57.6 307.584 
L 414.72 307.584 
" style="fill:none;stroke:#000000;stroke-linecap:square;stroke-linejoin:miter;stroke-width:0.8;"/>
   </g>
   <g id="patch_6">
    <path d="M 57.6 41.472 
L 414.72 41.472 
" style="fill:none;stroke:#000000;stroke-linecap:square;stroke-linejoin:miter;stroke-width:0.8;"/>
   </g>
   <g id="text_15">
    <text style="font-family:DejaVu Sans;font-size:12px;font-style:normal;font-weight:normal;text-anchor:middle;" transform="rotate(-0, 236.16, 35.472)" x="236.16" y="35.472">Coin Flips for exp(-x)</text>
   </g>
   <g id="legend_1">
    <g id="patch_7">
     <path d="M 64.6 78.82825 
L 274.728125 78.82825 
Q 276.728125 78.82825 276.728125 76.82825 
L 276.728125 48.472 
Q 276.728125 46.472 274.728125 46.472 
L 64.6 46.472 
Q 62.6 46.472 62.6 48.472 
L 62.6 76.82825 
Q 62.6 78.82825 64.6 78.82825 
z
" style="fill:#ffffff;opacity:0.8;stroke:#cccccc;stroke-linejoin:miter;"/>
    </g>
    <g id="line2d_15">
     <path d="M 66.6 54.570437 
L 86.6 54.570437 
" style="fill:none;stroke:#1f77b4;stroke-linecap:square;stroke-width:1.5;"/>
    </g>
    <g id="line2d_16"/>
    <g id="text_16">
     <text style="font-family:DejaVu Sans;font-size:10px;font-style:normal;font-weight:normal;text-anchor:start;" transform="rotate(-0, 94.6, 58.070437)" x="94.6" y="58.070437">Coin Flip Lower Bound</text>
    </g>
    <g id="line2d_17">
     <path d="M 66.6 69.248562 
L 86.6 69.248562 
" style="fill:none;stroke:#ff7f0e;stroke-linecap:square;stroke-width:1.5;"/>
    </g>
    <g id="line2d_18"/>
    <g id="text_17">
     <text style="font-family:DejaVu Sans;font-size:10px;font-style:normal;font-weight:normal;text-anchor:start;" transform="rotate(-0, 94.6, 72.748562)" x="94.6" y="72.748562">Avg. Coins Flipped exp(-x) (Flajolet)</text>
    </g>
   </g>
  </g>
 </g>
 <defs>
  <clipPath id="pa65d7cdb08">
   <rect height="266.112" width="357.12" x="57.6" y="41.472"/>
  </clipPath>
 </defs>
</svg>

<svg height="460.8" viewBox="0 0 460.8 345.6" width="614.4" xmlns="http://www.w3.org/2000/svg" xmlns:xlink="http://www.w3.org/1999/xlink"><defs><style>*{stroke-linecap:butt;stroke-linejoin:round}</style></defs><g id="figure_1"><path d="M0 345.6h460.8V0H0z" fill="#fff" id="patch_1"/><g id="axes_1"><path d="M57.6 307.584h357.12V41.472H57.6z" fill="#fff" id="patch_2"/><g id="matplotlib.axis_1"><g id="xtick_1"><g id="line2d_1"><defs><path d="M0 0v3.5" id="m0323e510a7" stroke="#000" stroke-width=".8"/></defs><use x="73.8" xlink:href="#m0323e510a7" y="307.584" stroke="#000" stroke-width=".8"/></g><text x="73.8" y="322.182" font-family="DejaVu Sans" font-size="10" font-weight="400" text-anchor="middle" id="text_1">0.0</text></g><g id="xtick_2"><use x="138.744" xlink:href="#m0323e510a7" y="307.584" stroke="#000" stroke-width=".8" id="line2d_2"/><text x="138.744" y="322.182" font-family="DejaVu Sans" font-size="10" font-weight="400" text-anchor="middle" id="text_2">0.2</text></g><g id="xtick_3"><use x="203.688" xlink:href="#m0323e510a7" y="307.584" stroke="#000" stroke-width=".8" id="line2d_3"/><text x="203.688" y="322.182" font-family="DejaVu Sans" font-size="10" font-weight="400" text-anchor="middle" id="text_3">0.4</text></g><g id="xtick_4"><use x="268.632" xlink:href="#m0323e510a7" y="307.584" stroke="#000" stroke-width=".8" id="line2d_4"/><text x="268.632" y="322.182" font-family="DejaVu Sans" font-size="10" font-weight="400" text-anchor="middle" id="text_4">0.6</text></g><g id="xtick_5"><use x="333.576" xlink:href="#m0323e510a7" y="307.584" stroke="#000" stroke-width=".8" id="line2d_5"/><text x="333.576" y="322.182" font-family="DejaVu Sans" font-size="10" font-weight="400" text-anchor="middle" id="text_5">0.8</text></g><g id="xtick_6"><use x="398.52" xlink:href="#m0323e510a7" y="307.584" stroke="#000" stroke-width=".8" id="line2d_6"/><text x="398.52" y="322.182" font-family="DejaVu Sans" font-size="10" font-weight="400" text-anchor="middle" id="text_6">1.0</text></g><text x="236.16" y="335.861" font-family="DejaVu Sans" font-size="10" font-weight="400" text-anchor="middle" id="text_7">Input Coin&apos;s Heads Probability (λ)</text></g><g id="matplotlib.axis_2"><g id="ytick_1"><g id="line2d_7"><defs><path d="M0 0h-3.5" id="mf0f841842d" stroke="#000" stroke-width=".8"/></defs><use x="57.6" xlink:href="#mf0f841842d" y="295.488" stroke="#000" stroke-width=".8"/></g><text x="50.6" y="299.287" font-family="DejaVu Sans" font-size="10" font-weight="400" text-anchor="end" id="text_8">0</text></g><g id="ytick_2"><use x="57.6" xlink:href="#mf0f841842d" y="244.364" stroke="#000" stroke-width=".8" id="line2d_8"/><text x="50.6" y="248.163" font-family="DejaVu Sans" font-size="10" font-weight="400" text-anchor="end" id="text_9">50</text></g><g id="ytick_3"><use x="57.6" xlink:href="#mf0f841842d" y="193.24" stroke="#000" stroke-width=".8" id="line2d_9"/><text x="50.6" y="197.04" font-family="DejaVu Sans" font-size="10" font-weight="400" text-anchor="end" id="text_10">100</text></g><g id="ytick_4"><use x="57.6" xlink:href="#mf0f841842d" y="142.117" stroke="#000" stroke-width=".8" id="line2d_10"/><text x="50.6" y="145.916" font-family="DejaVu Sans" font-size="10" font-weight="400" text-anchor="end" id="text_11">150</text></g><g id="ytick_5"><use x="57.6" xlink:href="#mf0f841842d" y="90.993" stroke="#000" stroke-width=".8" id="line2d_11"/><text x="50.6" y="94.792" font-family="DejaVu Sans" font-size="10" font-weight="400" text-anchor="end" id="text_12">200</text></g><text transform="rotate(-90 25.433 174.528)" x="25.433" y="174.528" font-family="DejaVu Sans" font-size="10" font-weight="400" text-anchor="middle" id="text_13">Coin Flips Needed</text></g><path clip-path="url(#p0d850a159e)" d="M73.833 294.466l3.28.015 3.278.015 3.28.016 3.28.015 3.278.015 3.28.014 3.28.015 3.278.015 3.28.014 3.28.015 3.278.014 3.28.014 3.28.014 3.278.014 3.28.014 3.28.013 3.278.014 3.28.013 3.28.014 3.279.013 3.279.013 3.28.013 3.279.013 3.279.013 3.28.012 3.279.013 3.279.012 3.28.013 3.279.012 3.279.012 3.28.012 3.279.012 3.279.012 3.28.011 3.279.012 3.279.012 3.28.011 3.279.011 3.279.011 3.28.012 3.279.01 3.279.011 3.28.011 3.279.01 3.279.012 3.28.01 3.279.01 3.279.01 3.28.011 3.279.01 3.279.01 3.28.01 3.279.01 3.279.01 3.28.01 3.279.009 3.279.01 3.28.009 3.279.009 3.28.01 3.278.008 3.28.01 3.28.008 3.278.009 3.28.009 3.28.008 3.278.009 3.28.008 3.28.009 3.278.008 3.28.008 3.28.008 3.278.008 3.28.008 3.28.008 3.278.008 3.28.008 3.28.007 3.278.008 3.28.008 3.28.007 3.279.007 3.279.007 3.28.008 3.279.007 3.279.007 3.28.007 3.279.007 3.279.006 3.28.007 3.279.007 3.279.006 3.28.007 3.279.006 3.279.006 3.28.007 3.279.006 3.279.006 3.28.006" fill="none" stroke="#1f77b4" stroke-linecap="square" stroke-width="1.5" id="line2d_12"/><path clip-path="url(#p0d850a159e)" d="M73.833 294.466l3.28-.009 3.278-.008 3.28-.004 3.28-.037 3.278-.024 3.28.012 3.28-.024 3.278-.003 3.28.007 3.28-.056 3.278.033 3.28-.047 3.28-.037 3.278-.018 3.28.012 3.28-.02 3.278.022 3.28-.053 3.28-.008 3.279-.008 3.279-.009 3.28-.022 3.279-.05 3.279.09 3.28-.18 3.279-.013 3.279.002 3.28-.031 3.279-.035 3.279-.053 3.28.045 3.279-.1 3.279-.035 3.28.061 3.279-.19 3.279-.098 3.28.063 3.279.033 3.279-.094 3.28-.043 3.279-.078 3.279-.038 3.28-.133 3.279.07 3.279-.158 3.28.114 3.279-.006 3.279-.307 3.28-.024 3.279.098 3.279-.004 3.28-.348 3.279.035 3.279-.035 3.28-.206 3.279-.432 3.279.107 3.28-.08 3.279-.004 3.28-.456 3.278.441 3.28-.296 3.28-.425 3.278-.109 3.28-.613 3.28.398 3.278-.625 3.28-.233 3.28-.195 3.278-.468 3.28-.648 3.28-.372 3.278-.665 3.28.528 3.28-.925 3.278-.975 3.28-.289 3.28-.574 3.278-1.182 3.28-1.665 3.28-1.01 3.279-2.256 3.279-2.057 3.28-3.124 3.279-1.8 3.279-1.15 3.28-6.318 3.279-1.254 3.279-9.272 3.28-9.177 3.279-16.207 3.279-17.662 3.28-24.165 3.279-39.74 3.279-94" fill="none" stroke="#ff7f0e" stroke-linecap="square" stroke-width="1.5" id="line2d_13"/><path d="M57.6 307.584V41.472" fill="none" stroke="#000" stroke-linecap="square" stroke-width=".8" id="patch_3"/><path d="M414.72 307.584V41.472" fill="none" stroke="#000" stroke-linecap="square" stroke-width=".8" id="patch_4"/><path d="M57.6 307.584h357.12" fill="none" stroke="#000" stroke-linecap="square" stroke-width=".8" id="patch_5"/><path d="M57.6 41.472h357.12" fill="none" stroke="#000" stroke-linecap="square" stroke-width=".8" id="patch_6"/><text x="236.16" y="35.472" font-family="DejaVu Sans" font-size="12" font-weight="400" text-anchor="middle" id="text_14">Coin Flips for exp(-x)</text><g id="legend_1"><path d="M64.6 78.828h210.128q2 0 2-2V48.472q0-2-2-2H64.6q-2 0-2 2v28.356q0 2 2 2z" fill="#fff" opacity=".8" stroke="#ccc" id="patch_7"/><path d="M66.6 54.57h20" fill="none" stroke="#1f77b4" stroke-linecap="square" stroke-width="1.5" id="line2d_14"/><text x="94.6" y="58.07" font-family="DejaVu Sans" font-size="10" font-weight="400" id="text_15">Coin Flip Lower Bound</text><path d="M66.6 69.249h20" fill="none" stroke="#ff7f0e" stroke-linecap="square" stroke-width="1.5" id="line2d_16"/><text x="94.6" y="72.749" font-family="DejaVu Sans" font-size="10" font-weight="400" id="text_16">Avg. Coins Flipped exp(-x) (Flajolet)</text></g></g></g><defs><clipPath id="p0d850a159e"><path d="M57.6 41.472h357.12v266.112H57.6z"/></clipPath></defs></svg>
